svg/Tango/status/dialog-warning.svg

<?xml version="1.0" encoding="UTF-8" standalone="no"?>
<!-- Created with Inkscape (http://www.inkscape.org/) -->
<svg
   xmlns:dc="http://purl.org/dc/elements/1.1/"
   xmlns:cc="http://creativecommons.org/ns#"
   xmlns:rdf="http://www.w3.org/1999/02/22-rdf-syntax-ns#"
   xmlns:svg="http://www.w3.org/2000/svg"
   xmlns="http://www.w3.org/2000/svg"
   xmlns:xlink="http://www.w3.org/1999/xlink"
   xmlns:sodipodi="http://sodipodi.sourceforge.net/DTD/sodipodi-0.dtd"
   xmlns:inkscape="http://www.inkscape.org/namespaces/inkscape"
   width="48px"
   height="48px"
   id="svg1377"
   sodipodi:version="0.32"
   inkscape:version="0.46"
   sodipodi:docbase="/home/jimmac/src/cvs/tango-icon-theme/scalable/status"
   sodipodi:docname="dialog-warning.svg"
   inkscape:output_extension="org.inkscape.output.svg.inkscape">
  <defs
     id="defs1379">
    <inkscape:perspective
       sodipodi:type="inkscape:persp3d"
       inkscape:vp_x="0 : 24 : 1"
       inkscape:vp_y="0 : 1000 : 0"
       inkscape:vp_z="48 : 24 : 1"
       inkscape:persp3d-origin="24 : 16 : 1"
       id="perspective48" />
    <radialGradient
       inkscape:collect="always"
       xlink:href="#linearGradient5060"
       id="radialGradient6719"
       gradientUnits="userSpaceOnUse"
       gradientTransform="matrix(-2.774389,0,0,1.969706,112.7623,-872.8854)"
       cx="605.71429"
       cy="486.64789"
       fx="605.71429"
       fy="486.64789"
       r="117.14286" />
    <linearGradient
       inkscape:collect="always"
       id="linearGradient5060">
      <stop
         style="stop-color:black;stop-opacity:1;"
         offset="0"
         id="stop5062" />
      <stop
         style="stop-color:black;stop-opacity:0;"
         offset="1"
         id="stop5064" />
    </linearGradient>
    <radialGradient
       inkscape:collect="always"
       xlink:href="#linearGradient5060"
       id="radialGradient6717"
       gradientUnits="userSpaceOnUse"
       gradientTransform="matrix(2.774389,0,0,1.969706,-1891.633,-872.8854)"
       cx="605.71429"
       cy="486.64789"
       fx="605.71429"
       fy="486.64789"
       r="117.14286" />
    <linearGradient
       id="linearGradient5048">
      <stop
         style="stop-color:black;stop-opacity:0;"
         offset="0"
         id="stop5050" />
      <stop
         id="stop5056"
         offset="0.5"
         style="stop-color:black;stop-opacity:1;" />
      <stop
         style="stop-color:black;stop-opacity:0;"
         offset="1"
         id="stop5052" />
    </linearGradient>
    <linearGradient
       inkscape:collect="always"
       xlink:href="#linearGradient5048"
       id="linearGradient6715"
       gradientUnits="userSpaceOnUse"
       gradientTransform="matrix(2.774389,0,0,1.969706,-1892.179,-872.8854)"
       x1="302.85715"
       y1="366.64789"
       x2="302.85715"
       y2="609.50507" />
    <linearGradient
       y2="56.0523"
       x2="47.3197"
       y1="11.1133"
       x1="4.1914"
       gradientUnits="userSpaceOnUse"
       id="aigrd1">
      <stop
         id="stop6490"
         style="stop-color:#D4D4D4"
         offset="0" />
      <stop
         id="stop6492"
         style="stop-color:#E2E2E2"
         offset="0.3982" />
      <stop
         id="stop6494"
         style="stop-color:#FFFFFF"
         offset="1" />
    </linearGradient>
    <linearGradient
       y2="56.0523"
       x2="47.3197"
       y1="11.1133"
       x1="4.1914"
       gradientUnits="userSpaceOnUse"
       id="linearGradient7451"
       xlink:href="#aigrd1"
       inkscape:collect="always" />
    <linearGradient
       id="linearGradient4126"
       inkscape:collect="always">
      <stop
         id="stop4128"
         offset="0"
         style="stop-color:#000000;stop-opacity:1;" />
      <stop
         id="stop4130"
         offset="1"
         style="stop-color:#000000;stop-opacity:0;" />
    </linearGradient>
    <radialGradient
       r="17.142857"
       fy="40.000000"
       fx="23.857143"
       cy="40.000000"
       cx="23.857143"
       gradientTransform="matrix(1,0,0,0.5,2.139286e-14,20)"
       gradientUnits="userSpaceOnUse"
       id="radialGradient7449"
       xlink:href="#linearGradient4126"
       inkscape:collect="always" />
    <linearGradient
       inkscape:collect="always"
       xlink:href="#linearGradient6525"
       id="linearGradient5250"
       x1="8.5469341"
       y1="30.281681"
       x2="30.85088"
       y2="48.301884"
       gradientUnits="userSpaceOnUse"
       gradientTransform="matrix(0.899009,0,0,0.934235,1.875108,1.193645)" />
    <linearGradient
       inkscape:collect="always"
       xlink:href="#aigrd1"
       id="linearGradient3922"
       gradientUnits="userSpaceOnUse"
       x1="4.1914"
       y1="11.1133"
       x2="47.3197"
       y2="56.0523" />
    <linearGradient
       inkscape:collect="always"
       xlink:href="#linearGradient6525"
       id="linearGradient3924"
       gradientUnits="userSpaceOnUse"
       gradientTransform="matrix(0.899009,0,0,0.934235,1.875108,1.193645)"
       x1="8.5469341"
       y1="30.281681"
       x2="30.85088"
       y2="48.301884" />
    <linearGradient
       inkscape:collect="always"
       xlink:href="#linearGradient6525"
       id="linearGradient3933"
       gradientUnits="userSpaceOnUse"
       gradientTransform="matrix(0.899009,0,0,0.934235,1.875108,1.193645)"
       x1="8.5469341"
       y1="30.281681"
       x2="30.85088"
       y2="48.301884" />
    <linearGradient
       inkscape:collect="always"
       xlink:href="#aigrd1"
       id="linearGradient3935"
       gradientUnits="userSpaceOnUse"
       x1="4.1914"
       y1="11.1133"
       x2="47.3197"
       y2="56.0523" />
    <linearGradient
       inkscape:collect="always"
       xlink:href="#aigrd1"
       id="linearGradient3946"
       gradientUnits="userSpaceOnUse"
       x1="4.1914"
       y1="11.1133"
       x2="47.3197"
       y2="56.0523" />
    <linearGradient
       inkscape:collect="always"
       xlink:href="#linearGradient6525"
       id="linearGradient3948"
       gradientUnits="userSpaceOnUse"
       gradientTransform="matrix(0.899009,0,0,0.934235,1.875108,1.193645)"
       x1="8.5469341"
       y1="30.281681"
       x2="30.85088"
       y2="48.301884" />
  </defs>
  <sodipodi:namedview
     id="base"
     pagecolor="#ffffff"
     bordercolor="#666666"
     borderopacity="1.0"
     inkscape:pageopacity="0.0"
     inkscape:pageshadow="2"
     inkscape:zoom="14.757891"
     inkscape:cx="13.022822"
     inkscape:cy="24"
     inkscape:current-layer="g7435"
     showgrid="true"
     inkscape:grid-bbox="true"
     inkscape:document-units="px"
     inkscape:window-width="1105"
     inkscape:window-height="818"
     inkscape:window-x="0"
     inkscape:window-y="30">
    <inkscape:grid
       id="GridFromPre046Settings"
       type="xygrid"
       originx="0px"
       originy="0px"
       spacingx="1px"
       spacingy="1px"
       color="#0000ff"
       empcolor="#0000ff"
       opacity="0.2"
       empopacity="0.4"
       empspacing="4" />
  </sodipodi:namedview>
  <metadata
     id="metadata1382">
    <rdf:RDF>
      <cc:Work
         rdf:about="">
        <dc:format>image/svg+xml</dc:format>
        <dc:type
           rdf:resource="http://purl.org/dc/dcmitype/StillImage" />
        <dc:title>Dialog Warning</dc:title>
        <dc:date>2005-10-14</dc:date>
        <dc:creator>
          <cc:Agent>
            <dc:title>Andreas Nilsson</dc:title>
          </cc:Agent>
        </dc:creator>
        <dc:contributor>
          <cc:Agent>
            <dc:title>Jakub Steiner, Garrett LeSage</dc:title>
          </cc:Agent>
        </dc:contributor>
        <dc:subject>
          <rdf:Bag>
            <rdf:li>dialog</rdf:li>
            <rdf:li>warning</rdf:li>
          </rdf:Bag>
        </dc:subject>
        <cc:license
           rdf:resource="http://creativecommons.org/licenses/publicdomain/" />
      </cc:Work>
      <cc:License
         rdf:about="http://creativecommons.org/licenses/publicdomain/">
        <cc:permits
           rdf:resource="http://creativecommons.org/ns#Reproduction" />
        <cc:permits
           rdf:resource="http://creativecommons.org/ns#Distribution" />
        <cc:permits
           rdf:resource="http://creativecommons.org/ns#DerivativeWorks" />
      </cc:License>
    </rdf:RDF>
  </metadata>
  <g
     id="layer1"
     inkscape:label="Layer 1"
     inkscape:groupmode="layer">
    <g
       transform="matrix(1.566667,0.000000,0.000000,1.566667,-8.925566,-23.94764)"
       id="g7435">
      <g
         style="display:inline"
         transform="matrix(1.444074e-2,0,0,1.331973e-2,33.38871,40.40337)"
         id="g6707">
        <rect
           style="opacity:0.40206185;color:black;fill:url(#linearGradient6715);fill-opacity:1;fill-rule:nonzero;stroke:none;stroke-width:1;stroke-linecap:round;stroke-linejoin:miter;marker:none;marker-start:none;marker-mid:none;marker-end:none;stroke-miterlimit:4;stroke-dasharray:none;stroke-dashoffset:0;stroke-opacity:1;visibility:visible;display:inline;overflow:visible"
           id="rect6709"
           width="1339.6335"
           height="478.35718"
           x="-1559.2523"
           y="-150.69685" />
        <path
           style="opacity:0.40206185;color:black;fill:url(#radialGradient6717);fill-opacity:1;fill-rule:nonzero;stroke:none;stroke-width:1;stroke-linecap:round;stroke-linejoin:miter;marker:none;marker-start:none;marker-mid:none;marker-end:none;stroke-miterlimit:4;stroke-dasharray:none;stroke-dashoffset:0;stroke-opacity:1;visibility:visible;display:inline;overflow:visible"
           d="M -219.61876,-150.68038 C -219.61876,-150.68038 -219.61876,327.65041 -219.61876,327.65041 C -76.744594,328.55086 125.78146,220.48075 125.78138,88.454235 C 125.78138,-43.572302 -33.655436,-150.68036 -219.61876,-150.68038 z "
           id="path6711"
           sodipodi:nodetypes="cccc" />
        <path
           sodipodi:nodetypes="cccc"
           id="path6713"
           d="M -1559.2523,-150.68038 C -1559.2523,-150.68038 -1559.2523,327.65041 -1559.2523,327.65041 C -1702.1265,328.55086 -1904.6525,220.48075 -1904.6525,88.454235 C -1904.6525,-43.572302 -1745.2157,-150.68036 -1559.2523,-150.68038 z "
           style="opacity:0.40206185;color:black;fill:url(#radialGradient6719);fill-opacity:1;fill-rule:nonzero;stroke:none;stroke-width:1;stroke-linecap:round;stroke-linejoin:miter;marker:none;marker-start:none;marker-mid:none;marker-end:none;stroke-miterlimit:4;stroke-dasharray:none;stroke-dashoffset:0;stroke-opacity:1;visibility:visible;display:inline;overflow:visible" />
      </g>
      <g
         id="g3937"
         transform="matrix(1,0,4.537846e-3,1,-0.138907,-1.394718e-15)"
         inkscape:r_cx="true"
         inkscape:r_cy="true">
        <path
           inkscape:r_cy="true"
           inkscape:r_cx="true"
           transform="matrix(1,0,-8.726683e-3,1,0.328074,1.276596)"
           id="path6485"
           d="M 33.282781,38.644744 L 22.407791,18.394765 C 22.095292,17.832266 21.532792,17.519767 20.907793,17.519767 C 20.282793,17.519767 19.720294,17.894765 19.407795,18.457265 L 8.7828048,38.707245 C 8.5328048,39.207244 8.5328048,39.894744 8.8453048,40.394743 C 9.1578038,40.894743 9.6578038,41.144742 10.282804,41.144742 L 31.782782,41.144742 C 32.407781,41.144742 32.97028,40.832243 33.220281,40.332243 C 33.53278,39.832243 33.53278,39.207244 33.282781,38.644744 z "
           style="fill:#cc0000;fill-rule:nonzero;stroke:#9f0000;stroke-width:0.6382978;stroke-miterlimit:4;stroke-dasharray:none;stroke-opacity:1" />
        <g
           inkscape:r_cy="true"
           inkscape:r_cx="true"
           id="g6487"
           transform="matrix(0.625,0,-5.534934e-3,0.634254,6.164053,15.76055)"
           style="fill-rule:nonzero;stroke:#000000;stroke-miterlimit:4">
          <linearGradient
             y2="56.052299"
             x2="47.319698"
             y1="11.1133"
             x1="4.1914001"
             gradientUnits="userSpaceOnUse"
             id="linearGradient6525">
            <stop
               id="stop6529"
               style="stop-color:#ffffff;stop-opacity:1;"
               offset="0" />
            <stop
               id="stop6531"
               style="stop-color:#ffffff;stop-opacity:0.34020618;"
               offset="1" />
          </linearGradient>
          <path
             inkscape:r_cy="true"
             inkscape:r_cx="true"
             id="path6496"
             d="M 9.5,37.6 C 9.2,38.1 9.5,38.5 10,38.5 L 38.2,38.5 C 38.7,38.5 39,38.1 38.7,37.6 L 24.4,11 C 24.1,10.5 23.7,10.5 23.5,11 L 9.5,37.6 z "
             style="fill:url(#linearGradient3946);stroke:none" />
        </g>
        <path
           inkscape:r_cy="true"
           inkscape:r_cx="true"
           transform="matrix(1,0,-8.726683e-3,1,0.318277,1.276596)"
           sodipodi:nodetypes="ccsccscccc"
           id="path1325"
           d="M 32.323106,38.183905 L 22.150271,19.265666 C 21.71698,18.45069 21.561698,18.189213 20.908406,18.189213 C 20.346525,18.189213 20.054127,18.57002 19.651305,19.339291 L 9.7489285,38.242296 C 9.1737649,39.303588 9.1128238,39.580228 9.3937644,40.047345 C 9.6747034,40.514462 10.032797,40.48902 11.356441,40.519491 L 30.974593,40.519491 C 32.206825,40.534726 32.483988,40.440837 32.70874,39.97372 C 32.989681,39.506602 32.867799,39.136 32.323106,38.183905 z "
           style="opacity:0.5;fill:none;fill-opacity:1;fill-rule:nonzero;stroke:url(#linearGradient3948);stroke-width:0.63829792;stroke-miterlimit:4;stroke-dasharray:none;stroke-opacity:1" />
      </g>
      <g
         style="fill-rule:nonzero;stroke:#000000;stroke-miterlimit:4"
         transform="matrix(0.555088,0,0,0.555052,7.749711,17.80196)"
         id="g6498"
         inkscape:r_cx="true"
         inkscape:r_cy="true">
        <path
           style="stroke:none"
           d="M 23.9,36.5 C 22.6,36.5 21.6,35.5 21.6,34.2 C 21.6,32.8 22.5,31.9 23.9,31.9 C 25.3,31.9 26.1,32.8 26.2,34.2 C 26.2,35.5 25.3,36.5 23.9,36.5 L 23.9,36.5 z M 22.5,30.6 L 21.9,19.1 L 25.9,19.1 L 25.3,30.6 L 22.4,30.6 L 22.5,30.6 z "
           id="path6500"
           inkscape:r_cx="true"
           inkscape:r_cy="true" />
      </g>
    </g>
  </g>
</svg>

<svg xmlns="http://www.w3.org/2000/svg" xmlns:xlink="http://www.w3.org/1999/xlink" viewBox="0 0 48 48"><defs><linearGradient id="4" gradientUnits="userSpaceOnUse" x1="4.191" y1="11.11" x2="47.32" y2="56.05"><stop stop-color="#d4d4d4"/><stop offset=".398" stop-color="#e2e2e2"/><stop offset="1" stop-color="#fff"/></linearGradient><linearGradient id="3" gradientUnits="userSpaceOnUse" gradientTransform="matrix(2.77439 0 0 1.96971-1892.18-872.89)" y1="366.65" x2="0" y2="609.51"><stop stop-opacity="0"/><stop offset=".5"/><stop offset="1" stop-opacity="0"/></linearGradient><linearGradient id="5" gradientUnits="userSpaceOnUse" gradientTransform="matrix(.89901 0 0 .93424 1.875 1.194)" x1="8.547" y1="30.28" x2="30.851" y2="48.3"><stop stop-color="#fff"/><stop offset="1" stop-color="#fff" stop-opacity=".34"/></linearGradient><linearGradient id="1"><stop/><stop offset="1" stop-opacity="0"/></linearGradient><radialGradient xlink:href="#1" id="2" gradientUnits="userSpaceOnUse" gradientTransform="matrix(2.77439 0 0 1.96971-1891.63-872.89)" cx="605.71" cy="486.65" r="117.14"/><radialGradient xlink:href="#1" id="0" gradientUnits="userSpaceOnUse" gradientTransform="matrix(-2.77439 0 0 1.96971 112.76-872.89)" cx="605.71" cy="486.65" r="117.14"/></defs><g transform="matrix(1.56667 0 0 1.56667-8.926-23.948)"><g transform="matrix(.01444 0 0 .01332 33.389 40.4)" color="#000"><path opacity=".402" fill="url(#3)" d="m-1559.25-150.7h1339.63v478.36h-1339.63z"/><path d="m-219.62-150.68c0 0 0 478.33 0 478.33 142.87.9 345.4-107.17 345.4-239.2 0-132.03-159.44-239.13-345.4-239.13" opacity=".402" fill="url(#2)"/><path d="m-1559.25-150.68c0 0 0 478.33 0 478.33-142.87.9-345.4-107.17-345.4-239.2 0-132.03 159.44-239.13 345.4-239.13" opacity=".402" fill="url(#0)"/></g><g transform="matrix(1 0 .00454 1-.139 0)"><path transform="matrix(1 0-.00873 1 .328 1.277)" d="m33.28 38.645l-10.875-20.25c-.312-.562-.875-.875-1.5-.875-.625 0-1.187.375-1.5.937l-10.625 20.25c-.25.5-.25 1.187.063 1.687.312.5.812.75 1.437.75h21.5c.625 0 1.187-.312 1.437-.812.312-.5.312-1.125.063-1.687z" fill="#c00" stroke="#9f0000" stroke-width=".638"/><path d="m9.5 37.6c-.3.5 0 .9.5.9h28.2c.5 0 .8-.4.5-.9l-14.3-26.6c-.3-.5-.7-.5-.9 0l-14 26.6" fill="url(#4)" stroke="none" transform="matrix(.625 0-.00553.63425 6.164 15.761)"/><path transform="matrix(1 0-.00873 1 .318 1.277)" d="m32.32 38.18l-10.173-18.918c-.433-.815-.589-1.076-1.242-1.076-.562 0-.854.381-1.257 1.15l-9.902 18.903c-.575 1.061-.636 1.338-.355 1.805.281.467.639.442 1.963.472h19.618c1.232.015 1.509-.079 1.734-.546.281-.467.159-.838-.386-1.79z" opacity=".5" fill="none" stroke="url(#5)" stroke-width=".638"/></g><path d="m23.9 36.5c-1.3 0-2.3-1-2.3-2.3 0-1.4.9-2.3 2.3-2.3 1.4 0 2.2.9 2.3 2.3 0 1.3-.9 2.3-2.3 2.3m-1.4-5.9l-.6-11.5h4l-.6 11.5h-2.9.1" stroke="none" transform="matrix(.55509 0 0 .55505 7.75 17.802)"/></g></svg>
